dist/images/src/logo-sap.svg

<svg width="85" height="43" fill="none" xmlns="http://www.w3.org/2000/svg"><path fill-rule="evenodd" clip-rule="evenodd" d="M30.987 16.43l-2.654 8.555c.81.317 1.71.498 2.654.498s1.844-.18 2.608-.452l-2.608-8.6v-.001zM0 0v43h42.77L84.595 0H0zm51.585 26.479h-2.699v8.193H36.563l-1.214-3.938c-1.304.452-2.788.679-4.362.679-1.62 0-3.104-.272-4.453-.725l-1.259 3.938h-7.556l.81-2.263c-.09.09-.18.181-.315.272-1.889 1.584-4.272 2.399-7.15 2.49h-.45c-3.373 0-6.656-.951-9.445-2.58l2.564-5.251c2.788 1.674 4.542 2.082 6.88 2.037 1.215-.046 2.114-.272 2.7-.86.359-.363.539-.815.539-1.313.045-1.358-1.844-1.992-4.183-2.761-1.889-.589-4.002-1.403-5.666-2.67-1.98-1.494-2.924-3.35-2.879-5.975.045-1.901.72-3.621 1.98-4.98C4.946 8.827 7.87 7.65 11.423 7.65c3.057 0 6.745.906 9.444 2.309l-2.924 5.205c-2.923-1.448-4.407-1.584-6.071-1.675-2.519-.135-3.778.77-3.778 1.766 0 1.177 2.339 2.308 4.587 3.032 3.418 1.087 7.736 2.58 8.366 6.88l6.206-17.019h7.196l7.285 20.324V8.057h8.32c7.96 0 11.694 2.897 11.694 9.279.18 5.703-3.688 9.143-10.164 9.143h.001zm-.855-12.81h-1.844v6.88h1.844c2.429 0 4.407-.814 4.407-3.485 0-2.535-1.978-3.395-4.407-3.395z" fill="#B2B2B2"/></svg>

<svg width="85" height="43" viewBox="0 0 85 43" fill="none" xmlns="http://www.w3.org/2000/svg">
<path fill-rule="evenodd" clip-rule="evenodd" d="M30.987 16.43L28.333 24.985C29.143 25.302 30.043 25.483 30.987 25.483C31.931 25.483 32.831 25.303 33.595 25.031L30.987 16.431V16.43ZM7.15256e-09 0V43H42.77L84.595 0H7.15256e-09ZM51.585 26.479H48.886V34.672H36.563L35.349 30.734C34.045 31.186 32.561 31.413 30.987 31.413C29.367 31.413 27.883 31.141 26.534 30.688L25.275 34.626H17.719L18.529 32.363C18.439 32.453 18.349 32.544 18.214 32.635C16.325 34.219 13.942 35.034 11.064 35.125H10.614C7.241 35.125 3.958 34.174 1.169 32.545L3.733 27.294C6.521 28.968 8.275 29.376 10.613 29.331C11.828 29.285 12.727 29.059 13.313 28.471C13.672 28.108 13.852 27.656 13.852 27.158C13.897 25.8 12.008 25.166 9.669 24.397C7.78 23.808 5.667 22.994 4.003 21.727C2.023 20.233 1.079 18.377 1.124 15.752C1.169 13.851 1.844 12.131 3.104 10.772C4.946 8.827 7.87 7.65 11.423 7.65C14.48 7.65 18.168 8.556 20.867 9.959L17.943 15.164C15.02 13.716 13.536 13.58 11.872 13.489C9.353 13.354 8.094 14.259 8.094 15.255C8.094 16.432 10.433 17.563 12.681 18.287C16.099 19.374 20.417 20.867 21.047 25.167L27.253 8.148H34.449L41.734 28.472V8.057H50.054C58.014 8.057 61.748 10.954 61.748 17.336C61.928 23.039 58.06 26.479 51.584 26.479H51.585ZM50.73 13.669H48.886V20.549H50.73C53.159 20.549 55.137 19.735 55.137 17.064C55.137 14.529 53.159 13.669 50.73 13.669Z" fill="#B2B2B2"/>
</svg>
